app/img/checked.svg

<svg width="9" height="7" viewBox="0 0 9 7" fill="none" xmlns="http://www.w3.org/2000/svg">
<path d="M1.67929 2.76613C1.27398 2.39097 0.641287 2.41541 0.266127 2.82071C-0.109033 3.22602 -0.0845938 3.85871 0.320713 4.23387L1.67929 2.76613ZM3.70089 6L3.02161 6.73387C3.22276 6.92006 3.49151 7.01552 3.76504 6.99794C4.03857 6.98036 4.2929 6.85127 4.46855 6.64086L3.70089 6ZM8.64266 1.64086C8.9966 1.21689 8.93983 0.586277 8.51586 0.232341C8.09189 -0.121596 7.46128 -0.0648248 7.10734 0.359142L8.64266 1.64086ZM0.320713 4.23387L3.02161 6.73387L4.38018 5.26613L1.67929 2.76613L0.320713 4.23387ZM4.46855 6.64086L8.64266 1.64086L7.10734 0.359142L2.93323 5.35914L4.46855 6.64086Z" fill="#FA003C"/>
</svg>

<svg width="9" height="7" fill="none" xmlns="http://www.w3.org/2000/svg"><path d="M1.68 2.766A1 1 0 00.32 4.234l1.36-1.468zM3.7 6l-.678.734a1 1 0 001.447-.093L3.7 6zm4.943-4.36A1 1 0 107.107.36l1.536 1.28zM.32 4.235l2.7 2.5 1.36-1.468-2.702-2.5L.321 4.234zM4.469 6.64l4.174-5L7.107.359l-4.174 5L4.47 6.641z" fill="#FA003C"/></svg>
